X:119
T:Khosid Wedding Dances
M:4/4
L:1/8
F:http://blackrosetheband.googlepages.com/ABCTUNES.ABC May 2009
S:Musik'as: The Lost Jewish Music of Transylvania
R:R
K:F
cde|:"F"f2 c2 f2 g2|a2 a3 ^fga|b2 a2 g2 f2|a2 fa gfae|
f2 c2 f2 g2|a2 a3 ^fga|b2 a2 g2 e2|1 fcAc fcde:|2 fcAc fef^g||
"Dm"a2 a2 (3^gag e2|f2 f2 e2 e2|f2 f2 e2 ^c2|def^g aefg|
a2 a2 (3^gag e2|f2 f2 e2 e2|f2 f2 ed^ce|1 d2 d3 ef^g:|2 d2 d3 =cde||
